X: 1
T:Put Me in the Big Chest
M:C
L:1/8
Q:80
C:Arr. Hamish Moore
S:Reel
K:HP
A2ABc2cB|
c2cBcef2|
A2ABc2af|  !
ecBcAAA2|
A2ABc2cB|
c2cBcef2|  !
A2ABc2af|
ecBcAAA2|]
c|  !
efeceAAc|
efecBABc|
efecefaf|  !
ecBcAAcAefeceAAc|
efecBABc|
efecefaf|  !
ecBcAAA2|]
